svgs/regular/temperature-empty.svg

<svg xmlns="http://www.w3.org/2000/svg" viewBox="0 0 320 512"><!-- Font Awesome Pro 6.0.0-alpha2 by @fontawesome - https://fontawesome.com License - https://fontawesome.com/license (Commercial License) --><path d="M160 320C133.49 320 112 341.49 112 368S133.49 416 160 416S208 394.51 208 368S186.51 320 160 320ZM272 278.5V112C272 50.125 221.875 0 160 0S48 50.125 48 112V278.5C28.25 303.125 16 334 16 368C16 447.5 80.5 512 160 512S304 447.5 304 368C304 334 291.75 303.125 272 278.5ZM160 464C107.125 464 64 420.875 64 368C64 341 75.75 320.75 85.5 308.5L96 295.375V112C96 76.75 124.75 48 160 48S224 76.75 224 112V295.25L234.5 308.375C244.25 320.75 256 341 256 368C256 420.875 212.875 464 160 464Z"/></svg>

<svg xmlns="http://www.w3.org/2000/svg" viewBox="0 0 320 512"><!--! Font Awesome Pro 6.0.0-alpha3 by @fontawesome - https://fontawesome.com License - https://fontawesome.com/license (Commercial License) --><path d="M160 320c-26.51 0-48 21.49-48 48s21.49 48 48 48s48-21.49 48-48S186.5 320 160 320zM272 278.5V112c0-61.87-50.12-112-111.1-112S48 50.13 48 112v166.5c-19.75 24.62-32 55.5-32 89.5c0 79.5 64.5 143.1 144 143.1S304 447.5 304 368C304 334 291.8 303.1 272 278.5zM160 464c-52.88 0-96-43.13-96-96c0-27 11.75-47.25 21.5-59.5L96 295.4V112c0-35.25 28.75-64 64-64s64 28.75 64 64v183.3l10.5 13.12C244.3 320.8 256 341 256 368C256 420.9 212.9 464 160 464z"/></svg>
